X:294
T:Morgiana in England. RH.294
R:jig
S:Rev.R.Harrison’s MS,c1815,Cumbria
N:I halved the first note, and removed the last rest.
N:This tune as “Morgiana” in Hardy MS. PJH.
O:England
A:Temple Sowerby,Cumbria
Z:vmp.Simon Wilson. Review PJH, 2008.
M:6/8
L:1/8
Q:3/8=104
K:G
d|dBd gbg|gef d2B|dBd gdg|ab/c’/b/a/ a2d|!
dBd gba|gfe d2B|dBd gdg|baf g2||!
f/g/|aba gfe|ddd c’2a|bdd gdd|bdd a2f/g/|!
aba gfe|ddd c’2a|bdd gdb|agf edc||!
BGA B2d|BGA B2d|c2e B2d|AcA Aed|!
BGA B2d|BGA B2d|e2g f2a|g2b a2|]

